X: 1204
T: Kandilli Yüzerken Uykularda
C: Münir Nurettin Selçuk
O: Turkey
F: http://compmusic.upf.edu/node/140
N: nihavent--sarki--sofyan--kandilli_yuzerken--munir_nurettin_selcuk
N: makam= nihavent
N: form= sarki
N: usul= sofyan = 4/4
M: 4/4
L: 1/16
K: C _B _e  
Q: 1/4=60
%%MIDI tuningsystem comma53
G8 D8  | G4 B4 A4 ^F4  | G4 c4 B4 A4  | \
w:  ARANAĞME  |   |   | 
A4 d4 B4 G4  | A4 ^F4 G4 B2A2  | G12 B2A2  | 
w:   |   |   | 
G12 A2^F2  | G12 A^F2G  | .G4 .D4 .G8  | \
w:   |   |   | 
.G4 .D4 .G8  | .G4 .G4 .G2.A2 B4  | A2B2 A2B2 AGG^F G4  | 
w:   |  Kan dil li  yü zer  |  ken_ uy *  ku lar *  *  *  da    | 
G4 B4 A4 ^F4  | G4 A4 B2c2 d4  | c2e2 d2c2 BcBc d4  | \
w:  SAZ  |  Meh tâ bı  sü rük  |  le dik  *  su lar *  *  *  da    | 
d4 e4 d4 B3d  | 
w:  SAZ  | 
d4 g4 d2_1/4e2 f4  | _1/4e2g2 f2_e2 e3/2d/cd e4  | \
w:  Bir  yol du  pa rıl  |  da yan  *  gü müş *  *  *  den    | 
e4 g4 e4 c4  | .d4 .d2z2 c2d2 e4  | 
w:  SAZ  |  Git tik  ba his_ aç  | 
c2e2 d2c2 BAGA B4  | B4 d4 B4 G4  | A4 A2z2 A2_1/4B2 c4  | \
w:  ma dık  *  dö nüş *  *  *  den    |  SAZ  |  Git tik  ba his_ aç  | 
A2c2 B2A2 AGG^F G4  | 
w:  ma dık  *  dö nüş *  *  *  den    | 
G4 B4 A4 ^F4  | G4 d4 g6z2  | .g4 .g4 .g2.g2 .g4  | \
w:  SAZ  |   |  Hül ya  te pe ler   | 
.a2b4a2 agg^f g4  | 
w:  ha yal _ a ğaç *  *  *  lar    | 
.g4 .g4 .g2.g2 .g4  | a2b4a2 agg^f g4  | \
w:  Hül ya  te pe ler   |  ha yal _ a ğaç *  *  *  lar    | 
g4 ga3 a2a2 a4  | a2b4ba ag^fg a4  | 
w:  Dur gun  *  su da  din  |  le nen  ya *  maç *  *  *  lar    | 
z2a4a2 b4 b2a2  | ag^fg a4 agfg a4  | \
w:  din le nen  ya  |  maç *  *  *  lar   SAZ  | 
a4 b4 a2ag g4  | 
w:  Mev sim  so nu  *  öy  | 
g2a2 g2ab ag^fg f4  | .^f4 .g4 .g4 _7/8a3g  | \
w:  le  bir  *  za *  man  *  *  *  ki   |  Gâ ip  bir  mu  | 
^f2f4g2 fede d4  | 
w:  sı kiy di  san *  *  *  ki    | 
a4 ^f4 g4 e4  | d4 ^f2e2 d6z2  | ^f2e2 d6z6  | \
w:  SAZ  |   |   | 
d4 g2z2 _7/8a4 g4  | f2e4.d2 c2d2 e4  | 
w:  Git miş  kay bol  |  mu şuz_ u zak *  ta   | 
e4 g4 e4 c4  | d4 d4 d2d2 g3d  | d2e2 d2c2 B3/2c/Bc d4  | \
w:  SAZ  |  Rû ya  so na  er  |  me den  *  şa fak *  *  *  ta    | 
.d4 .e4 .d4 .B4  | 
w:  SAZ  | 
c4 c2z2 e4 d4  | c2B4A2 G2A2 B4  | B4 d4 B4 G4  | \
w:  Git miş  kay bol  |  mu şuz_ u zak *  ta    |  SAZ  | 
A4 A4 A2_1/4B2 c4  | A2B2 A2B2 AGG^F G4  | 
w:  Rû ya  so na  er  |  me den  *  şa fak *  *  *  ta    | 
G4 B4 A4 ^F4  | G16  | |


